!!!COM:	la Rue, Pierre de
!!!CDT:	~1452///-1518/11/20
!!!OPR:	Missa Pro fidelibus defunctis
!!!ONM:	5
!!!OTL:	Sanctus
!!!AGN:	Mass; Sanctus
!!!SCT:	Rue1024e
!!!SCA:	Rue1024e
!!!voices-OPR:	5
!!!voices:	5
**kern	**kern	**kern	**kern	**kern
*Ivox	*Ivox	*Ivox	*Ivox	*Ivox
*I"Bassus	*I"Tenor2	*I"Tenor	*I"Contra	*I"Discantus
*I'B	*I'T2	*I'T	*I'C	*I'D
*staff5	*staff4	*staff3	*staff2	*staff1
*>[A,B,C,D]	*>[A,B,C,D]	*>[A,B,C,D]	*>[A,B,C,D]	*>[A,B,C,D]
*>A	*>A	*>A	*>A	*>A
*clefF4	*clefF4	*clefGv2	*clefGv2	*clefG2
*k[]	*k[]	*k[]	*k[]	*k[]
*M3/1	*M3/1	*M3/1	*M3/1	*M3/1
*met(O)	*met(O)	*met(O)	*met(O)	*met(O)
!!section: Sanctus
!!incipit: 5
!!!OMD: Sanctus
=1-	=1-	=1-	=1-	=1-
0.r	0.r	1d	1r	[0.a
.	.	0d	1f	.
.	.	.	[1f	.
=2	=2	=2	=2	=2
0.r	0.r	[0.A	1f]	0.a]
.	.	.	0e	.
=3	=3	=3	=3	=3
0.r	1F	0.A]	0.r	[0.a
.	0F	.	.	.
=4	=4	=4	=4	=4
1AA	[0.El	0.A	[0.el	0.a]
0AA	.	.	.	.
=5	=5	=5	=5	=5
0.EEl	0.E]	0.Bl	0.e]	0.gl
=6	=6	=6	=6	=6
0.r	0.D	0.r	1.A	0.f
.	.	.	1.B	.
=7	=7	=7	=7	=7
0.r	0.E	1.B	0.G	0.g
.	.	1.c	.	.
=8	=8	=8	=8	=8
0.r	[0.F	0.A	1.c	[0.a
.	.	.	1.d	.
=9	=9	=9	=9	=9
1r	0F]	1.c	1A	0a]
0AA	.	.	2c\	.
.	.	2A/	1d	.
.	1E	1A	.	1r
.	.	.	2c#i\	.
=10	=10	=10	=10	=10
1DD	0D	0.r	0d	1.a
2FF/	.	.	.	.
2GG/	.	.	.	1g
1EE	1C#i	.	1r	.
.	.	.	.	2e/
=11	=11	=11	=11	=11
0.DD	0D	0A	0d	0f
.	1r	1A	1d	1d
=12	=12	=12	=12	=12
1r	1AA	[0.A	1c	2e/
.	.	.	.	1f
1r	1C	.	2A/	.
.	.	.	2G/	1e
1DD	1D	.	1F	.
.	.	.	.	2d/
=13	=13	=13	=13	=13
0AA	0C	0A]	1.E	0e
.	.	.	2.A/	.
2C/	1r	1A	.	1r
.	.	.	4G/	.
2D\	.	.	2F/	.
=14	=14	=14	=14	=14
0AA	0C	0.A	0E	0e
1FF	1D	.	1r	1f
=15	=15	=15	=15	=15
[0.EE	1E	0.G	[0.E	1g
.	1BB	.	.	2e/
.	.	.	.	1e
.	1C	.	.	.
.	.	.	.	2c/
=16	=16	=16	=16	=16
0.EE]	0GG	0.G	0.E]	2B/
.	.	.	.	1c
.	.	.	.	2B/
.	1GG	.	.	1B
=17	=17	=17	=17	=17
[0.FF	1.C	[0.Al	2r	2r
.	.	.	1c	1A
.	2.D\	.	1A	1d
.	4C/	.	.	.
.	2AA/	.	2F/	[2c/
=18	=18	=18	=18	=18
0.FF]	[0.C	0.A_	0.F	1c]
.	.	.	.	1.f
.	.	.	.	2e/
=19	=19	=19	=19	=19
[0.AA	1C]	0.A_	0.c	1e
.	2r	.	.	2r
.	1F	.	.	1a
.	2E\	.	.	2g/
=20	=20	=20	=20	=20
0.AA]	2.C/	0.A_	1.c	2f/
.	.	.	.	1e
.	4D\	.	.	.
.	2E\	.	.	.
.	2F\	.	1.A	1d
.	1E	.	.	.
.	.	.	.	2c#i/
=21	=21	=21	=21	=21
0.DDl	0.Dl	0.A]	0.Fl	0.dl
!!LO:LB:i:g=z
=22||	=22||	=22||	=22||	=22||
*>B	*>B	*>B	*>B	*>B
*clefF4	*clefF4	*clefGv2	*clefGv2	*clefG2
*k[]	*k[]	*k[]	*k[]	*k[]
*M3/1	*M3/1	*M3/1	*M3/1	*M3/1
*met(C3)	*met(C3)	*met(C3)	*met(C3)	*met(C3)
!!section: Pleni sunt celi
!!!OMD: Pleni sunt celi
0.r	0.r	0.r	0d	0f
.	.	.	1B	1g
=23	=23	=23	=23	=23
0.r	0.r	0.r	0A	0a
.	.	.	[1c	[1a
=24	=24	=24	=24	=24
0.r	0.r	0.r	1c]	1a]
.	.	.	0B	0g#i
=25	=25	=25	=25	=25
0D	0.r	0F	0A	0a
1BB	.	1G	1r	1r
=26	=26	=26	=26	=26
0AA	0.r	0A	0.r	0.r
[1C	.	[1A	.	.
=27	=27	=27	=27	=27
1C]	0.r	1A]	0.r	0.r
0BB	.	0G#i	.	.
=28	=28	=28	=28	=28
0.AA	0.r	0.A	0c	0e
.	.	.	1c	1e
=29	=29	=29	=29	=29
1r	0.r	0.r	0d	0f
0AA	.	.	.	.
.	.	.	1c	1e
=30	=30	=30	=30	=30
0AA	0.r	0.r	0A	0c
1AA	.	.	[1c	1r
=31	=31	=31	=31	=31
*	*	*M3/1	*	*
*	*	*met(C|)	*	*
!	!	!LO:N:vis=0	!	!
0C	0.r	0.A	0.c]	0e
1AA	.	.	.	1e
=32	=32	=32	=32	=32
!	!	!LO:N:vis=0	!	!
[0.GG	0.r	0.B	0d	0g
.	.	.	1B	1e
=33	=33	=33	=33	=33
0GG]	0.r	0BV	0G	1.d
.	.	.	.	2c/
1r	.	[1AZ	1A	1c
=34	=34	=34	=34	=34
0.r	0.r	1A]V	1F	1A
.	.	0G#iZ	[0E	0B
=35	=35	=35	=35	=35
!	!	!LO:N:vis=0	!	!
[0.AA	0.r	0.A	0.E]	0A
.	.	.	.	1r
=36	=36	=36	=36	=36
!	!	!LO:N:vis=0	!	!
0AA]	0.r	0.A	1r	[0.c
.	.	.	0E	.
1AA	.	.	.	.
=37	=37	=37	=37	=37
!	!	!LO:N:vis=0	!	!
0FF	0.r	0.A	0F	1c]
.	.	.	.	0c
1FF	.	.	1F	.
=38	=38	=38	=38	=38
!	!	!LO:N:vis=0	!	!
0GG	0.r	[0.G	1D	0B
.	.	.	1E	.
[1EE	.	.	1B	1B
=39	=39	=39	=39	=39
!	!	!LO:N:vis=0	!	!
0.EE]	0.r	0.G]	1c	1e
.	.	.	2B\	2d/
.	.	.	2A/	2c/
.	.	.	1G	1B
=40	=40	=40	=40	=40
!	!	!LO:N:vis=0	!	!
1r	0.r	[0.G	0E	1c
0E	.	.	.	1B
.	.	.	1C	[1c
=41	=41	=41	=41	=41
!	!	!LO:N:vis=0	!	!
1C	0.r	0.G]	1E	1c]
1D	.	.	1F	0B
1E	.	.	[1E	.
=42	=42	=42	=42	=42
1AA	0.r	[0.Al	1E]	[0.Al
1.D	.	.	0F	.
2C/	.	.	.	.
=43	=43	=43	=43	=43
1C	0.r	0.A_	1E	0.A_
0D	.	.	1.F	.
.	.	.	2E/	.
=44	=44	=44	=44	=44
*	*	*	*^	*
0.AAl	0.r	0.A]	0.El\	0.cl/	0.A]
*	*	*	*v	*v	*
!!LO:LB:i:g=z
=45||	=45||	=45||	=45||	=45||
*>C	*>C	*>C	*>C	*>C
*clefF4	*clefF4	*clefGv2	*clefGv2	*clefG2
*k[]	*k[]	*k[]	*k[]	*k[]
*M3/1	*M3/1	*M3/1	*M3/1	*M3/1
*met(O)	*met(O)	*met(O)	*met(O)	*met(O)
!!section: Osanna
!!!OMD: Osanna
1.D	0D	0F	0d	0.r
2C/	.	.	.	.
1BB	1D	1G	1d	.
=46	=46	=46	=46	=46
0AA	0E	[0.A	[0.c	1.a
.	.	.	.	2g/
2r	1F	.	.	1f
[2AA/	.	.	.	.
=47	=47	=47	=47	=47
2AA/]	2C/	0A]	1c]	0e
1AA	2.A\	.	.	.
.	.	.	1c	.
.	4G\	.	.	.
1C	2E\	.	.	.
.	1F	1r	2A/	1d
2BB/	.	.	2d\	.
=48	=48	=48	=48	=48
2C/	2r	0.r	2c\	2e/
2D\	1F	.	1B-	2.f/
1AA	.	.	.	.
.	.	.	.	4e/
.	1E	.	1A	2c/
1BB-i	.	.	.	1d
.	2D\	.	2G/	.
=49	=49	=49	=49	=49
[0.AA	[0.E	0.A	1A	0c
.	.	.	2r	.
.	.	.	1A	.
.	.	.	.	1r
.	.	.	2c\	.
=50	=50	=50	=50	=50
1AA]	1E]	[0.A	2A/	2r
.	.	.	1c	1a
0FF	0F	.	.	.
.	.	.	1A	2cc\
.	.	.	.	2a/
.	.	.	2F/	[2cc\
=51	=51	=51	=51	=51
1FF	0C	0.A]	1c	2cc\]
.	.	.	.	1a
1C	.	.	1e	.
.	.	.	.	1g
1D	1F	.	1d	.
.	.	.	.	2f/
=52	=52	=52	=52	=52
2GG/	2D\	[0.G	2B\	2g/
1C	2C/	.	2c\	1e
.	1D	.	1G	.
2BB/	.	.	.	2d/
1C	1E	.	2r	1c
.	.	.	[2G/	.
=53	=53	=53	=53	=53
0GG	2D\	0.G]	2G/]	2B/
.	1BB	.	1B	1e
.	2GG/	.	1B	1d
1EE	1GG	.	.	.
.	.	.	2c\	2g/
=54	=54	=54	=54	=54
1DD	2r	[0.Al	2d\	2.f/
.	2D\	.	2D/	.
.	.	.	.	4e/
0AA	2C/	.	2E/	2e/
.	2BB/	.	2F/	1d
.	[1AAl	.	1E	.
.	.	.	.	2c#i/
=55	=55	=55	=55	=55
0.DDl	0.AA]	0.A]	0.Dl	0.dl
!!LO:LB:i:g=z
!!LO:TX:rj:i:Y=40:t=fine
=56||	=56||	=56||	=56||	=56||
*>D	*>D	*>D	*>D	*>D
*clefF4	*clefF4	*clefGv2	*clefGv2	*clefG2
*k[]	*k[]	*k[]	*k[]	*k[]
*M3/1	*M3/1	*M3/1	*M3/1	*M3/1
*met(C3)	*met(C3)	*met(C3)	*met(C3)	*met(C3)
!!section: Qui venit
!!!OMD: Qui venit
0.AA	0.r	0E	0.r	0.r
.	.	1F	.	.
=57	=57	=57	=57	=57
0AA	0.r	1E	0.r	0.r
.	.	1C	.	.
1BB	.	1D	.	.
=58	=58	=58	=58	=58
1AA	1r	1E	0A	0.r
1FF	1r	1D	.	.
1GG	[1E	1BB	1B	.
=59	=59	=59	=59	=59
0AA	1E]	0C	1A	0.r
.	1F	.	1F	.
1r	1E	1r	1G	.
=60	=60	=60	=60	=60
0.r	1C	0.r	0A	0.r
.	1D	.	.	.
.	[1E	.	[1G	.
=61	=61	=61	=61	=61
0.r	1E]	1C	1G]	0.r
.	0C	1E	1G	.
.	.	1F	1A	.
=62	=62	=62	=62	=62
0.r	1BB	0G	1B	0.r
.	1.AA	.	1.c	.
.	.	1F#i	.	.
.	2D\	.	2B\	.
=63	=63	=63	=63	=63
*M3/1	*	*	*	*
*met(C|)	*	*	*	*
!LO:N:vis=0	!	!	!	!
[0.GG	[0.D	0G	0B	0.r
.	.	1r	1r	.
=64	=64	=64	=64	=64
!LO:N:vis=0	!	!	!	!
0.GG]	0D]	[0.G	1G	0.r
.	.	.	1B	.
.	1r	.	1c	.
=65	=65	=65	=65	=65
!LO:N:vis=0	!	!	!	!
[0.BB-	0D	1G]	0.d	0.r
.	.	0F	.	.
.	1D	.	.	.
=66	=66	=66	=66	=66
!LO:N:vis=1	!	!	!	!
1.BB-]	1.D	0F	1.d	0.r
!LO:N:vis=1	!	!	!	!
[1.AA	2AA/	.	2c\	.
.	2C/	[1E	1A	.
.	2D\	.	.	.
=67	=67	=67	=67	=67
!LO:N:vis=0	!	!	!	!
0.AA]	1E	1E]	0c	0.r
.	1.C	0F	.	.
.	.	.	1A	.
.	2D\	.	.	.
=68	=68	=68	=68	=68
!LO:N:vis=0	!	!	!	!
0.GG	0D	0G	1B	0.r
.	.	.	1.G	.
.	1r	1E	.	.
.	.	.	2A/	.
=69	=69	=69	=69	=69
!LO:N:vis=1	!	!	!	!
1.r	0D	1F	1A	0.r
.	.	0G	0B	.
!LO:N:vis=1	!	!	!	!
1.GG	.	.	.	.
.	1E	.	.	.
=70	=70	=70	=70	=70
*M3/1	*	*	*	*
*met(3)	*	*	*	*
1.FF	0F	0C	1.A	0.r
2GG/	.	.	2B\	.
1AA	1E	1r	1c	.
=71	=71	=71	=71	=71
1BB-i	[0.D	[0.G	1d	0.r
1GG	.	.	1.B-i	.
[1BB-i	.	.	.	.
.	.	.	2A/	.
=72	=72	=72	=72	=72
1BB-]	1D]	1G]	0G	0.r
0AA	0C	0A	.	.
.	.	.	1F#i	.
=73	=73	=73	=73	=73
0GG	0D	0B	0G	0.r
1r	1r	1G	1r	.
=74	=74	=74	=74	=74
1.GG	0D	[0.G	1.B	0.r
2AA/	.	.	2c\	.
1BB	1D	.	1d	.
=75	=75	=75	=75	=75
1C	1C	1G]	1e	0.r
1FF	1AA	0A	1c	.
[1BB-i	[1D	.	[1d	.
=76	=76	=76	=76	=76
1BB-]	1D]	1.G	2d\]	0.r
.	.	.	2G/	.
0AA	0C	.	0c	.
.	.	2F/	.	.
.	.	1F	.	.
=77	=77	=77	=77	=77
0GG	1D	1G	1B	0.r
.	1BB	1.E	1G	.
1r	1C	.	1A	.
.	.	2F/	.	.
=78	=78	=78	=78	=78
0.r	1GG	1G	1B	0.r
.	0C	1.E	2G/	.
.	.	.	1A	.
.	.	2D/	2G/	.
=79	=79	=79	=79	=79
0.r	1BB	0D	0G	0.r
.	1.AA	.	.	.
.	.	1C	1F#i	.
.	2BB/	.	.	.
=80	=80	=80	=80	=80
0.GGl	0.BBl	0.Dl	0.Gl	0.r
!!LO:TX:i:Y=40:rj:t=Osanna ut supra
=||	=||	=||	=||	=||
*-	*-	*-	*-	*-
!!!RDF**kern: l=long note in original notation
!!!RDF**kern: i=editorial accidental
!!!RDF**kern: V=start of tuplet marker
!!!RDF**kern: Z=end of tuplet marker
!!!ENC:	Chris Gage 05-02-2013
!!!END:	2013/08/01/
!!!EED:	Jesse Rodin
!!!EEV:	2013/08/02/
!!!ONB:	Translated from MusicXML and edited on 2013/08/02/ by Craig Sapp
!!muse2ps: T^@{OPR}^u^@{ONM}{. }@{OTL}^C^@{COM}^i2I150v85,85,85,85,130Q16
